X:73
T:New Lesson. HA.072, A
M:6/4
L:1/4
Q:3/4=100
C:in Hand C
S:Henry Atkinson’s original MS,Hartburn,N’umberland,1694.
O:England
A:Hartburn,Northumberland
H:1/4
Z:vmp.Chris Partington.Jan.2004
K:C
“^As Writ”eaga|g2g3/2(f/4g/4) ad|eAd aga|g2g3/2(f/4g/4) ad|”^#”c2:|
|:abc'(b/a/)|b(a/g/)a bg>f|gef2 g3/2(f/4g/4)|a”^#”d(e/f/)ed|e2:|
zzzzzz||
M:3/2
|:”^Edited by CGP”ea ga g2|g3/2 (f/4g/4) ad eA|\
ea ga g2|g3/2 (f/4g/4) ad c2:|
|:ab c'(b/a/)b(a/g/)|ab g>f ge|f2 g3/2 (f/4g/4)ad|ef ed e2:|

